packages/ffe-icons/icons/filled/md/grid_off.svg

<svg xmlns="http://www.w3.org/2000/svg" height="24" viewBox="0 -960 960 960" width="24"><path d="m810.617-64.462-75.539-75.539H632.999V-242.08L573-302.079v162.078H387v-186.616h161.462l-59.998-59.998H387v-102.079l-59.999-59.999v162.078h-187v-186.77H302.31l-59.999-59.998h-102.31v-102.31L72.924-802.77q-8.307-8.308-8.807-20.576-.5-12.269 8.89-21.66 8.61-8.609 20.994-8.609t21.076 8.692l738.308 738.308q8.923 8.923 8.808 20.884-.116 11.961-9.423 21.352-9.308 8.609-21.077 8.917-11.769.307-21.076-9Zm-598.308-75.539q-29.827 0-51.067-21.241-21.241-21.24-21.241-51.067v-114.308h187v186.616H212.309Zm607.69-114.462-72.154-72.154h72.154v72.154ZM687.846-386.615l-54.847-54.848v-131.922h187v186.77H687.846ZM573-501.461l-71.923-71.924H573v71.924ZM441.078-633.383 387-687.461v-132.538h186v186.616H441.078Zm191.921 0v-186.616h114.692q29.827 0 51.067 21.241 21.241 21.24 21.241 51.067v114.308h-187ZM327.001-747.46l-72.538-72.539h72.538v72.539Z"/></svg>

<svg xmlns="http://www.w3.org/2000/svg" height="24" viewBox="0 -960 960 960" width="24"><path d="M810.62-64.46 735.08-140H633v-102.08l-60-60V-140H387v-186.62h161.46l-60-60H387v-102.07l-60-60v162.07H140v-186.76h162.31l-60-60H140v-102.31l-67.08-67.08q-8.3-8.31-8.8-20.58-.5-12.27 8.89-21.66 8.61-8.6 20.99-8.6 12.39 0 21.08 8.69l738.31 738.31q8.92 8.92 8.8 20.88-.11 11.96-9.42 21.35-9.31 8.61-21.08 8.92-11.77.31-21.07-9ZM212.31-140q-29.83 0-51.07-21.24Q140-182.48 140-212.31v-114.31h187V-140H212.31ZM820-254.46l-72.16-72.16H820v72.16ZM687.85-386.62 633-441.46v-131.92h187v186.76H687.85ZM573-501.46l-71.92-71.92H573v71.92ZM441.08-633.38 387-687.46V-820h186v186.62H441.08Zm191.92 0V-820h114.69q29.83 0 51.07 21.24Q820-777.52 820-747.69v114.31H633ZM327-747.46 254.46-820H327v72.54Z"/></svg>
